images/skyline.svg

<?xml version="1.0" encoding="UTF-8" standalone="no"?>
<svg width="1600px" height="483px" viewBox="0 0 1600 483" version="1.1" xmlns="http://www.w3.org/2000/svg" xmlns:xlink="http://www.w3.org/1999/xlink" xmlns:sketch="http://www.bohemiancoding.com/sketch/ns">
    <!-- Generator: Sketch 3.3.2 (12043) - http://www.bohemiancoding.com/sketch -->
    <title>skyline</title>
    <desc>Created with Sketch.</desc>
    <defs>
        <rect id="path-1" x="0" y="0" width="1600" height="491"></rect>
    </defs>
    <g id="Page-1" stroke="none" stroke-width="1" fill="none" fill-rule="evenodd" sketch:type="MSPage">
        <g id="skyline" sketch:type="MSLayerGroup" transform="translate(0.000000, -8.000000)">
            <mask id="mask-2" sketch:name="Mask" fill="white">
                <use xlink:href="#path-1"></use>
            </mask>
            <use id="Mask" sketch:type="MSShapeGroup" xlink:href="#path-1"></use>
            <g mask="url(#mask-2)" id="Page-1">
                <g transform="translate(0.000000, 8.000000)">
                    <g>
                        <g id="Desktop-HD" fill="#F04650" sketch:type="MSShapeGroup">
                            <g id="website-mock">
                                <g id="about-section">
                                    <g id="skyline">
                                        <path d="M906.71916,185.797288 L906.71916,173.618222 L900.604943,173.618222 L900.604943,144.692941 L880.733738,144.692941 L880.733738,109.678127 L877.676629,109.678127 L877.676629,70.096163 L880.733738,70.096163 L880.733738,59.4394797 L874.61952,59.4394797 L874.61952,47.2604138 L822.648676,47.2604138 L822.648676,59.4394797 L816.534459,59.4394797 L816.534459,70.096163 L821.120122,70.096163 L821.120122,109.678127 L816.534459,109.678127 L816.534459,144.692941 L798.191807,144.692941 L798.191807,173.618222 L790.549036,173.618222 L790.549036,185.797288 L787.491927,185.797288 L787.491927,490.273936 L909.776269,490.273936 L909.776269,185.797288 L906.71916,185.797288 L906.71916,185.797288 Z M856.276869,68.573779 L860.862532,68.573779 L860.862532,115.767659 L856.276869,115.767659 L856.276869,68.573779 L856.276869,68.573779 Z M846.341267,68.573779 L850.92693,68.573779 L850.92693,115.767659 L846.341267,115.767659 L846.341267,68.573779 L846.341267,68.573779 Z M836.405663,68.573779 L840.991326,68.573779 L840.991326,115.767659 L836.405663,115.767659 L836.405663,68.573779 L836.405663,68.573779 Z M825.705784,70.096163 L828.762893,70.096163 L828.762893,68.573779 L830.291447,68.573779 L830.291447,115.767659 L828.762893,115.767659 L828.762893,109.678127 L825.705784,109.678127 L825.705784,70.096163 L825.705784,70.096163 Z M871.562412,70.096163 L868.505303,70.096163 L868.505303,68.573779 L866.976749,68.573779 L866.976749,115.767659 L868.505303,115.767659 L868.505303,109.678127 L871.562412,109.678127 L871.562412,70.096163 L871.562412,70.096163 Z M848.634098,167.943408 C856.231873,167.943408 862.391086,161.787907 862.391086,154.194713 C862.391086,146.601518 856.231873,140.446017 848.634098,140.446017 C841.036323,140.446017 834.87711,146.601518 834.87711,154.194713 C834.87711,161.787907 841.036323,167.943408 848.634098,167.943408 L848.634098,167.943408 L848.634098,167.943408 Z" id="tower"></path>
                                        <path d="M144.944953,480.222344 L144.944953,131.881918 C144.944953,131.881918 139.161389,129.768747 133.082214,127.748055 L133.082214,98.74165 C133.082214,98.74165 118.827221,92.961639 113.465176,91.421845 C108.105867,89.879738 90.2022734,86.40942 90.2022734,86.40942 C90.2022734,86.40942 81.4762902,85.447626 78.5667168,85.447626 C76.2292044,85.447626 69.2166671,86.40942 69.2166671,86.40942 L69.2166671,122.483621 L52.7938632,124.173696 L52.7938632,157.88503 C50.1881117,158.423727 48.2310608,158.853759 48.2310608,158.853759 L48.2310608,480.222344 L90.2022734,480.222344" id="filler"></path>
                                        <path d="M97.6908194,490.687366 L97.6908194,251.554925 C97.6908194,251.554925 91.9072553,249.441754 85.8280806,247.421062 L85.8280806,218.414657 C85.8280806,218.414657 71.5730869,212.634646 66.2110414,211.094851 C60.851733,209.552745 42.9481396,206.082426 42.9481396,206.082426 C42.9481396,206.082426 34.2221564,205.120633 31.312583,205.120633 C28.9750706,205.120633 21.9625333,206.082426 21.9625333,206.082426 L21.9625333,242.156628 L5.53972936,243.846703 L5.53972936,277.558036 C2.9339778,278.096734 0.976927,278.526766 0.976927,278.526766 L0.976927,490.687366 L42.9481396,490.687366 L97.6908194,490.687366 L97.6908194,490.687366 Z" id="filler" transform="translate(49.333873, 347.903999) scale(-1, 1) translate(-49.333873, -347.903999) "></path>
                                        <path d="M456.316784,121.599059 C448.854841,117.818962 437.011878,116.363113 428.472612,115.803278 C426.642819,113.155968 423.449474,110.548695 418.038031,108.483309 C408.049691,104.670768 386.656351,105.031796 386.656351,105.031796 L344.768361,115.458126 L344.768361,132.543117 L338.097512,134.098369 L338.097512,159.753467 L327.751903,162.054245 L327.751903,490.430901 L548.102335,490.430901 L548.102335,156.877665 L475.168552,141.781438 C475.169241,141.781438 469.421221,128.237009 456.316784,121.599059 L456.316784,121.599059 L456.316784,121.599059 Z" id="filler"></path>
                                        <path d="M232.559731,132.444848 C241.514985,132.444848 248.774651,125.189557 248.774651,116.239702 C248.774651,107.289847 241.514985,100.034557 232.559731,100.034557 C223.604478,100.034557 216.344811,107.289847 216.344811,116.239702 C216.344811,125.189557 223.604478,132.444848 232.559731,132.444848 L232.559731,132.444848 L232.559731,132.444848 Z M303.655921,179.060821 L303.655921,123.357502 L299.047141,108.007489 L292.311713,108.007489 L283.403484,82.893252 L275.218692,84.956292 L273.720683,79.746961 L273.720683,79.336846 L273.327783,79.336846 L266.889212,59.0018811 L258.871558,62.8512265 L246.273811,26.4881259 L235.054334,39.9708072 L235.054334,79.336846 L230.065128,79.336846 L230.065128,39.9708072 L218.846898,26.5080707 L206.385108,62.8898695 L198.298852,59.0018811 L191.79168,79.336846 L191.398779,79.336846 L191.398779,79.745714 L189.899522,84.993689 L181.638644,82.893252 L172.808997,108.007489 L166.072321,108.007489 L161.463542,123.357502 L161.463542,179.060821 L153.979733,179.060821 L153.979733,489.451689 L311.13973,489.451689 L311.13973,179.060821 L303.655921,179.060821 L303.655921,179.060821 Z" id="chase"></path>
                                        <path d="M1577.31087,336.441487 L1577.31087,297.142079 L1556.85888,297.142079 L1556.85888,256.270693 L1534.83367,256.270693 L1534.83367,216.971283 L1514.38168,216.971283 L1514.38168,176.099899 L1495.50293,176.099899 L1495.50293,135.228513 L1391.66977,135.228513 L1391.66977,176.099899 L1371.21778,176.099899 L1371.21778,216.971283 L1350.7658,216.971283 L1350.7658,256.270693 L1328.74058,256.270693 L1328.74058,297.142079 L1308.2886,297.142079 L1308.2886,336.441487 L1286.26339,336.441487 L1286.26339,490.495171 L1599.33608,490.495171 L1599.33608,336.441487 L1577.31087,336.441487" id="pyramid"></path>
                                        <path d="M1326.99644,173.916676 L1317.61326,173.916676 L1314.17835,186.174717 L1303.06933,186.174717 L1303.06933,161.868175 L1278.28768,161.868175 L1278.28768,81.405138 L1274.8025,81.405138 L1271.30056,84.478379 L1271.30056,132.49777 L1269.03855,132.49777 L1269.03855,174.143678 L1266.75978,174.143678 L1266.75978,186.174717 L1245.01091,186.174717 L1229.64595,199.235991 L1229.64595,450.927445 L1227.6185,450.927445 L1227.6185,490.407697 L1338.55786,490.407697 L1338.55786,186.174717 L1326.99644,186.174717 L1326.99644,173.916676 L1326.99644,173.916676 Z" id="filler"></path>
                                        <path d="M1177.91526,188.792223 L1104.96801,188.792223 L1067.75796,231.236003 L1053.94304,231.236003 L1053.94304,255.130791 L1040.31323,255.130791 L1040.31323,341.193504 L1019.71812,341.193504 L1019.71812,372.853523 L1016.13133,372.853523 L1016.13133,446.358224 L1285.23312,446.358224 L1285.23312,255.130791 L1276.00003,255.130791 L1276.00003,231.236003 L1258.5289,231.236003 L1211.18327,188.792223 L1195.28032,188.792223 L1195.28032,77.323804 L1249.49827,84.740276 L1249.60267,87.59662 L1255.51862,105.837132 L1260.56458,105.837132 L1271.83969,95.614428 L1269.47331,87.446286 L1266.55013,77.273693 L1264.87974,71.510893 L1256.28422,69.506442 L1248.90667,69.506442 L1249.08067,74.868351 L1189.53837,66.750321 L1189.53837,26.3105037 L1182.78722,26.3105037 L1182.78722,65.798206 L973.466947,37.1846551 L964.941018,45.8037983 L1177.91526,74.918462 L1177.91526,188.792223 L1177.91526,188.792223 Z" id="crane" transform="translate(1125.087070, 236.334364) scale(-1, 1) translate(-1125.087070, -236.334364) "></path>
                                        <path d="M1074.3421,304.49097 L1074.3421,299.362488 L996.474939,273.72008 L918.607778,299.362488 L918.607778,304.49097 L923.741877,304.49097 L923.741877,331.842872 L778.275752,331.842872 L778.275752,261.753623 L738.914331,238.28911 L738.914331,155.765003 C738.914331,154.327319 737.079746,152.958014 733.780232,151.715212 L733.780232,147.217534 L733.698086,147.217534 C733.751139,146.935468 733.780232,146.649982 733.780232,146.362787 C733.780232,143.996848 731.925111,141.750573 728.615329,139.723113 C728.100208,108.333387 711.588947,82.0943651 689.284712,74.3401009 L689.284712,61.7428406 L688.974954,61.7428406 C687.547675,50.0379361 681.333704,41.2289142 673.882416,41.2289142 C666.431128,41.2289142 660.217157,50.0379361 658.789878,61.7428406 L658.480121,61.7428406 L658.480121,75.704277 C638.154225,84.7423711 623.385135,109.415496 622.589349,138.746992 C618.194561,141.0172 615.695966,143.610502 615.695966,146.362787 C615.695966,146.649982 615.72506,146.935468 615.778112,147.217534 L615.695966,147.217534 L615.695966,152.440038 C613.488304,153.482829 612.273234,154.600838 612.273234,155.765003 L612.273234,234.208549 L566.066347,261.753623 L566.066347,331.842872 L420.600223,331.842872 L420.600223,465.183394 L420.600223,304.49097 L425.734321,304.49097 L425.734321,299.362488 L347.867161,273.72008 L270,299.362488 L270,304.49097 L275.134099,304.49097 L275.134099,465.183394 L271.711366,465.183394 L271.711366,470.311875 L1072.63073,470.311875 L1072.63073,465.183394 L1069.208,465.183394 L1069.208,304.49097 L1074.3421,304.49097 L1074.3421,304.49097 Z M651.663744,0.214302831 C651.663744,0.214302831 654.912747,9.64536065 654.494834,12.8573481 C654.296658,14.3799631 651.663744,18.3069366 651.663744,18.3069366 C651.663744,18.3069366 656.917594,19.439579 657.543701,20.922739 C657.97272,21.9391963 656.019268,25.0644263 656.019268,25.0644263 C656.019268,25.0644263 661.003728,25.9564149 661.899224,27.2442617 C662.427985,28.0045883 661.899224,30.9499818 661.899224,30.9499818 C661.899224,30.9499818 668.337341,29.7785383 670.174718,30.7319983 C671.568921,31.4554857 673.659137,35.9636032 673.659137,35.9636032 C673.659137,35.9636032 675.981938,30.8337966 677.579108,30.0780477 C679.063253,29.3759227 684.112393,30.7319983 684.112393,30.7319983 C684.112393,30.7319983 683.172253,26.591619 683.894617,25.5003934 C684.408351,24.724154 687.379035,24.1924921 687.379035,24.1924921 C687.379035,24.1924921 686.487242,17.6074274 686.943483,15.4731506 C687.595505,12.4224709 692.605663,4.35599007 692.605663,4.35599007 L684.547945,12.2033975 C684.547945,12.2033975 684.017007,16.9393079 683.023512,18.088953 C682.289389,18.9386529 678.885765,19.8328213 678.885765,19.8328213 C678.885765,19.8328213 678.040793,23.4140729 677.361332,24.4104757 C676.882006,25.1136906 674.748018,26.5903111 674.748018,26.5903111 L673.659137,24.6284592 L673.005808,26.2269325 L672.134704,24.8464427 L672.134704,26.3723275 L666.6903,23.1025744 L665.383643,16.9990353 C665.383643,16.9990353 660.018074,13.918274 658.632582,12.421381 C656.245973,9.84307172 651.663744,0.214302831 651.663744,0.214302831 L651.663744,0.214302831 Z" id="capitol"></path>
                                        <rect id="Rectangle-4" x="48.4224082" y="403.952994" width="1287.83001" height="86.5421764"></rect>
                                        <path d="M1174.72872,271.500652 L1330.86981,361.648752 L1257.20594,489.238329 L1101.06485,399.090228 L1174.72872,271.500652 L1174.72872,271.500652 Z" id="Rectangle-5"></path>
                                        <path d="M113.113226,294.140577 L287.265983,340.804668 L249.134755,483.112349 L74.9819978,436.448259 L113.113226,294.140577 L113.113226,294.140577 Z" id="Rectangle-5-Copy-4"></path>
                                        <rect id="Rectangle-5-Copy-3" x="879.834443" y="383.769699" width="172.273673" height="86.5421764"></rect>
                                        <path d="M459.119342,249.568163 L580.492194,264.470875 L565.075501,390.029768 L443.702648,375.127055 L459.119342,249.568163 L459.119342,249.568163 Z" id="Rectangle-5-Copy"></path>
                                    </g>
                                </g>
                            </g>
                        </g>
                    </g>
                </g>
            </g>
        </g>
    </g>
</svg>

<?xml version="1.0" encoding="utf-8"?>
<!-- Generator: Adobe Illustrator 16.0.4, SVG Export Plug-In . SVG Version: 6.00 Build 0)  -->
<!DOCTYPE svg PUBLIC "-//W3C//DTD SVG 1.1//EN" "http://www.w3.org/Graphics/SVG/1.1/DTD/svg11.dtd">
<svg version="1.1" id="Layer_1" xmlns:sketch="http://www.bohemiancoding.com/sketch/ns"
	 xmlns="http://www.w3.org/2000/svg" xmlns:xlink="http://www.w3.org/1999/xlink" x="0px" y="0px" width="1600px" height="483px"
	 viewBox="0 0 1600 483" enable-background="new 0 0 1600 483" xml:space="preserve">
<path fill="#F04650" d="M905.319,203.268v-12.783h-6.185v-28.039h-18.556v-24.331v-9.896h-3.712V89.872h3.712v-9.897h-6.187v-12.37
	h-50.305v12.37h-6.597v9.897h3.71v38.347h-3.71v9.896v24.331h-18.556v28.039h-6.597v12.783h-2.887v236.271h118.754V203.268H905.319z
	 M856.87,87.81h3.504v47.007h-3.504V87.81z M847.386,87.81h3.298v47.007h-3.298V87.81z M837.695,87.81h3.506v47.007h-3.506V87.81z
	 M831.51,134.817h-1.648v-6.598h-3.711V89.872h3.711V87.81h1.648V134.817z M848.828,174.75c-7.387,0-13.375-5.988-13.375-13.375
	S841.441,148,848.828,148s13.375,5.988,13.375,13.375S856.215,174.75,848.828,174.75z M871.921,128.219h-3.712v6.598h-1.649V87.81
	h1.648v-7.835h0.001v9.897h3.712V128.219z"/>
<path id="filler" fill="#F04650" d="M144.945,480.223V131.882c0,0-5.784-2.113-11.863-4.134V98.742c0,0-14.255-5.78-19.617-7.32
	c-5.359-1.542-23.263-5.013-23.263-5.013s-8.726-0.961-11.635-0.961c-2.338,0-9.35,0.961-9.35,0.961v36.074l-16.423,1.69v33.711
	c-2.606,0.539-4.563,0.969-4.563,0.969v321.369h41.971"/>
<path id="filler_1_" fill="#F04650" d="M-3.023,490.688V251.555c0,0,5.784-2.113,11.863-4.134v-29.006c0,0,14.255-5.78,19.617-7.32
	c5.359-1.542,23.263-5.012,23.263-5.012s8.726-0.962,11.635-0.962c2.338,0,9.35,0.962,9.35,0.962v36.074l16.423,1.69v33.712
	c2.606,0.538,4.563,0.969,4.563,0.969v212.16H51.72H-3.023L-3.023,490.688z"/>
<path id="filler_2_" fill="#F04650" d="M456.316,121.599c-7.462-3.78-19.305-5.236-27.844-5.796
	c-1.83-2.647-5.023-5.254-10.435-7.32c-9.988-3.812-31.382-3.452-31.382-3.452l-41.888,10.426v17.085l-6.671,1.556v25.655
	l-10.346,2.301v328.376h220.351V156.878l-72.934-15.097C475.169,141.781,469.421,128.237,456.316,121.599L456.316,121.599
	L456.316,121.599z"/>
<path id="pyramid" fill="#F04650" d="M1580.311,336.441v-39.299h-20.451v-40.872h-22.025v-39.299h-20.452V176.1h-18.879v-40.872
	H1394.67V176.1h-20.452v40.871h-20.452v39.299h-22.025v40.872h-20.451v39.299h-22.025v154.054h313.072V336.441H1580.311"/>
<path id="filler_3_" fill="#F04650" d="M1326.996,173.917h-9.383l-3.435,12.258h-11.109v-24.307h-24.781V81.405h-3.485l-3.502,3.073
	v48.02h-2.262v41.646h-2.279v12.031h-21.749l-15.364,13.061v251.692h-2.028v39.479h110.939V186.175h-11.562V173.917
	L1326.996,173.917z"/>
<path id="crane" fill="#F04650" d="M1072.259,188.792h72.947l37.21,42.444h13.815v23.895h13.63v86.062h20.595v31.66h3.587v73.505
	H964.941V255.131h9.232v-23.895h17.472l47.346-42.444h15.902V77.324l-54.218,7.417l-0.104,2.856l-5.916,18.24h-5.046l-11.275-10.223
	l2.367-8.168l2.923-10.173l1.67-5.763l8.596-2.004h7.378l-0.174,5.362l59.542-8.118v-40.44h6.751v39.488l209.32-28.614l8.526,8.619
	l-212.975,29.115V188.792L1072.259,188.792z"/>
<path id="capitol" fill="#F04650" d="M1074.342,304.491v-5.129l-77.867-25.642l-77.867,25.642v5.129h5.135v27.352H778.275v-70.089
	l-39.361-23.465v-82.524c0-1.438-1.834-2.807-5.134-4.05v-4.498h-0.082c0.053-0.282,0.082-0.568,0.082-0.855
	c0-2.366-1.855-4.612-5.165-6.64c-0.515-31.39-17.026-57.629-39.33-65.383V61.743h-0.311c-1.427-11.705-7.641-20.514-15.092-20.514
	s-13.666,8.809-15.093,20.514h-0.31v13.961c-20.326,9.038-35.096,33.711-35.891,63.043c-4.396,2.27-6.894,4.863-6.894,7.616
	c0,0.287,0.028,0.573,0.082,0.855h-0.082v5.222c-2.208,1.043-3.423,2.161-3.423,3.325v78.443l-46.207,27.545v70.089H420.601v133.341
	V304.491h5.134v-5.129l-77.867-25.642L270,299.362v5.129h5.134v160.692h-3.423v5.128h800.919v-5.128h-3.423V304.491H1074.342
	L1074.342,304.491z M651.664,0.214c0,0,3.249,9.431,2.831,12.643c-0.198,1.522-2.831,5.45-2.831,5.45s5.254,1.132,5.88,2.616
	c0.429,1.017-1.524,4.142-1.524,4.142s4.984,0.892,5.88,2.18c0.528,0.76,0,3.706,0,3.706s6.438-1.172,8.275-0.218
	c1.395,0.724,3.484,5.232,3.484,5.232s2.323-5.13,3.92-5.886c1.484-0.702,6.533,0.654,6.533,0.654s-0.94-4.14-0.218-5.231
	c0.514-0.776,3.484-1.308,3.484-1.308s-0.892-6.585-0.436-8.719c0.652-3.051,5.662-11.117,5.662-11.117l-8.058,7.847
	c0,0-0.531,4.736-1.524,5.886c-0.734,0.85-4.138,1.744-4.138,1.744s-0.845,3.581-1.524,4.578c-0.479,0.703-2.613,2.18-2.613,2.18
	l-1.089-1.962l-0.653,1.599l-0.871-1.38v1.525l-5.444-3.27l-1.307-6.104c0,0-5.366-3.081-6.751-4.578
	C656.246,9.843,651.664,0.214,651.664,0.214L651.664,0.214z"/>
<rect id="Rectangle-4" x="48.422" y="403.953" fill="#F04650" width="1287.83" height="86.542"/>
<path id="Rectangle-5" fill="#F04650" d="M1174.729,271.5l156.142,90.148l-73.664,127.59l-156.142-90.148L1174.729,271.5
	L1174.729,271.5z"/>
<path id="Rectangle-5-Copy-4" fill="#F04650" d="M113.113,294.141l174.153,46.664l-38.131,142.308L74.982,436.448L113.113,294.141
	L113.113,294.141z"/>
<rect id="Rectangle-5-Copy-3" x="879.834" y="383.77" fill="#F04650" width="172.274" height="86.542"/>
<path id="Rectangle-5-Copy" fill="#F04650" d="M459.119,249.568l121.373,14.902l-15.417,125.559l-121.372-14.902L459.119,249.568
	L459.119,249.568z"/>
<path fill="#F04650" d="M303.656,179.061v-55.703l-4.609-15.35h-6.735l-8.908-25.114l-8.185,2.063l-1.498-5.209v-0.41h-0.393
	l-6.438-20.335l-8.018,3.849l-12.598-36.363l-11.22,13.482v39.366h-4.989V39.971l-11.218-13.463L206.385,62.89l-8.086-3.888
	l-6.507,20.335h-0.393v0.409l-1.5,5.248l-8.261-2.101l-8.83,25.114h-6.737l-4.609,15.35v55.703h-7.484v310.392h157.16V179.061
	H303.656z M232.56,151c-10.217,0-18.5-8.283-18.5-18.5s8.283-18.5,18.5-18.5s18.5,8.283,18.5,18.5S242.777,151,232.56,151z"/>
</svg>
